app/dist/common/images/the-first-of-long-island.svg

<svg height="18" viewBox="0 0 18 18" width="18" xmlns="http://www.w3.org/2000/svg"><path d="m0 0h18v18h-18z" fill="#f0f3fa"/><path d="m5.16 8.43h-1.16l1.99-3.43h1.01v8h-1v-5.93zm4.62 0h1.22l-2-3.43h-1v8h1v-5.93z" fill="#189ad6"/><path d="m11.21 9.57h-1.21l1.96 3.43h1.04v-8h-1v5.8z" fill="#5b6771"/></svg>

<!-- by TradingView --><svg width="18" height="18" viewBox="0 0 18 18" xmlns="http://www.w3.org/2000/svg"><path fill="#F0F3FA" d="M0 0h18v18H0z"/><path d="M5.16 8.43H4L5.99 5H7v8H6V7.07l-.84 1.36ZM9.78 8.43H11L9 5H8v8h1V7.07l.78 1.36Z" fill="#189AD6"/><path d="M11.21 9.57H10L11.96 13H13V5h-1v5.8l-.79-1.23Z" fill="#5B6771"/></svg>
